X:57
T:Walking on The Moon
Z:Dominique Renaudin
Z:Jack Campin, http://www.campin.me.uk/
F:Jack Campin's Nine-Note Tunebook
% last edit 03-02-2013
C:Addie Harper
Q:1/2=100
M:C|
L:1/8
N:normally in A
K:D
AB |d2d2 BAAF|A2A2 FEEF|D2D2 FAAA|BAAA FABc|
    d2d2 BAAF|A2A2 FEEF|D2D2 FAAF|EFFE D2 :|
^E2|F2F2 EDDF|A2A2 BAAB|d2d2 BAAF|BAAF E2
^E2|F2F2 EDDF|A2A2 BAAB|d2d2 BAAF|EFFE D2 :|

